X: 582
M:4/4
L:1/8
K:C
gf | e2g2fedc | d2g2edcB | c2e2dcBA | d2B6 | e3f gefg | fefga4 | agfe dcBA | G2E4 ||

